X:3030
T:Pierrot
C:anon.
O:France
R:Nursery song
Z:Transcribed by Frank Nordberg - http://www.musicaviva.com
F:http://abc.musicaviva.com/tunes/france/per-og-lille-karen.abc
M:C
L:1/4
K:F
FFFG|A2G2|FAGG|F3 z:|
GGGG|D2D2|GFED|C3 z|
FFFG|A2G2|FAGG|F3 z|]
W:
W:
W:  From Musica Viva - http://www.musicaviva.com
W:  the Internet center for free sheet music downloads.
